src/raw/suitcase/icon_24.svg

<svg width="24" height="24" viewBox="0 0 24 24" fill="none" xmlns="http://www.w3.org/2000/svg">
<path d="M19.7 7.5H4.3C2.7536 7.5 1.5 8.84315 1.5 10.5V19.5C1.5 21.1569 2.7536 22.5 4.3 22.5H19.7C21.2464 22.5 22.5 21.1569 22.5 19.5V10.5C22.5 8.84315 21.2464 7.5 19.7 7.5Z" stroke="#71717A" stroke-width="1.5" stroke-linejoin="round"/>
<path d="M7.5 22.5V3C7.5 2.17157 8.17157 1.5 9 1.5H15C15.8284 1.5 16.5 2.17157 16.5 3V22.5" stroke="#71717A" stroke-width="1.5" stroke-linecap="round" stroke-linejoin="round"/>
</svg>

<svg xmlns="http://www.w3.org/2000/svg" width="24" height="24" fill="none" viewBox="0 0 24 24">
  <path stroke="#3F3F46" stroke-linejoin="round" stroke-width="1.5"
    d="M19.7 7.5H4.3c-1.546 0-2.8 1.343-2.8 3v9c0 1.657 1.254 3 2.8 3h15.4c1.546 0 2.8-1.343 2.8-3v-9c0-1.657-1.254-3-2.8-3Z" />
  <path stroke="#3F3F46" stroke-linecap="round" stroke-linejoin="round" stroke-width="1.5"
    d="M7.5 22.5V3A1.5 1.5 0 0 1 9 1.5h6A1.5 1.5 0 0 1 16.5 3v19.5" />
</svg>
